!!!COM: (Joseph) Maurice Ravel
!!!OTL: [T292_Rav-w23p1m1-8]
**kern	**kern	**dynam	**kern	**dynam	**kern	**dynam
*grp:A	*grp:B	*grp:B	*grp:B	*grp:B	*grp:B	*grp:B
*part3	*part3	*part3	*part2	*part2	*part1	*part1
*staff4	*staff3	*staff3/4	*staff2	*staff2	*staff1	*staff1
*I"Piano	*I"Piano	*I"Piano	*I"Violoncello	*I"Violoncello	*I"Violin	*I"Violin
*I'Pno.	*	*	*I'Vc.	*	*I'Vln.	*
*clefF4	*clefG2	*	*clefF4	*	*clefG2	*
*k[]	*k[]	*	*k[]	*	*k[]	*
*C:	*C:	*	*C:	*	*C:	*
*M8/8	*M8/8	*	*M8/8	*	*M8/8	*
=1	=1	=1	=1	=1	=1	=1
!	!	!	!	!	!LO:TX:t= Modéré [eighth]=132	!
4ryy	/8a'L 8cc 8ee	pp	1r	.	1r	.
.	(8.a 8.cc 8.ee	.	.	.	.	.
*ped	*	*	*	*	*	*
4ryy	.	.	.	.	.	.
.	16f#XJk 16b 16dd	.	.	.	.	.
.	8.aL 8.cc 8.ee	.	.	.	.	.
4ryy	.	.	.	.	.	.
.	16bJk 16dd 16ff#X	.	.	.	.	.
.	8cc' 8ee 8gg)	.	.	.	.	.
8ryy	4b~ 4dd 4ff#	.	.	.	.	.
8ryy	.	.	.	.	.	.
=2	=2	=2	=2	=2	=2	=2
4ryy	/8a'L 8cc 8ee	.	1r	.	1r	.
.	(>8.a 8.cc 8.ee	.	.	.	.	.
4ryy	.	.	.	.	.	.
.	16f#XJk 16b 16dd	.	.	.	.	.
.	/8.aL 8.cc 8.ee	.	.	.	.	.
4ryy	.	.	.	.	.	.
.	16f#Jk 16b 16dd	.	.	.	.	.
.	8c'> 8fn 8a)	.	.	.	.	.
8ryy	4d~> 4f#X 4b	.	.	.	.	.
8ryy	.	.	.	.	.	.
=3	=3	=3	=3	=3	=3	=3
4ryy	8fn'L 8b-X 8dd	.	1r	.	1r	.
.	(>8.f 8.b- 8.dd	.	.	.	.	.
4ryy	.	.	.	.	.	.
.	16f#XJk 16bn 16ee	.	.	.	.	.
.	/8.gL 8.cc 8.dd	.	.	.	.	.
4ryy	.	.	.	.	.	.
.	16f#Jk 16b 16ee	.	.	.	.	.
.	8c'> 8fn 8a)	.	.	.	.	.
8ryy	4d~> 4f#X 4b	.	.	.	.	.
8ryy	.	.	.	.	.	.
=4	=4	=4	=4	=4	=4	=4
4ryy	8fn'>L 8b-X 8dd	.	1r	.	1r	.
.	(>8.f 8.b- 8.dd	.	.	.	.	.
4ryy	.	.	.	.	.	.
.	16f#XJk 16bn 16ee	.	.	.	.	.
.	8.eL 8.g 8.cc	.	.	.	.	.
4ryy	.	.	.	.	.	.
.	16dJk 16f# 16b	.	.	.	.	.
.	8B'> 8d 8g)	.	.	.	.	.
8ryy	4c#X~> 4e	.	.	.	.	.
8ryy	.	.	.	.	.	.
=5	=5	=5	=5	=5	=5	=5
4ryy	8cc'L 8ee 8aa 8ccc	.	8e'L	pp	8eee'L	pp
.	(8.cc 8.ee 8.aa 8.ccc	.	(8.e	.	(8.eee	.
4ryy	.	.	.	.	.	.
.	16bJk 16dd 16ff#X 16bb	.	16dJk)	.	16dddJk)	.
.	8.ccL 8.ee 8.aa 8.ccc	.	(8.eL	.	(8.eeeL	.
4ryy	.	.	.	.	.	.
.	16ddJk 16ff# 16bb 16ddd	.	16f#XJk)	.	16fff#XJk)	.
.	8ee' 8gg 8ccc 8eee)	.	(8g'	.	(8ggg'	.
8ryy	4dd~ 4ff# 4bb 4ddd	.	4f#~)	.	4fff#~)	.
8ryy	.	.	.	.	.	.
=6	=6	=6	=6	=6	=6	=6
4ryy	8cc'L 8ee 8aa 8ccc	.	8e'L	.	8eee'L	.
.	(8.cc 8.ee 8.aa 8.ccc	.	(8.e	.	(8.eee	.
4ryy	.	.	.	.	.	.
.	16bJk 16dd 16ff#X 16bb	.	16dJk)	.	16dddJk)	.
.	8.ccL 8.ee 8.aa 8.ccc	.	(8.eL	.	(8.eeeL	.
4ryy	.	.	.	.	.	.
.	16bJk 16dd 16ff# 16bb	.	16dJk)	.	16dddJk)	.
.	8f' 8a 8cc 8ffn)	.	(8A'	.	(8aa'	.
8ryy	4f#X~ 4b 4dd 4ff#X	.	4B~)	.	4bb~)	.
8ryy	.	.	.	.	.	.
=7	=7	=7	=7	=7	=7	=7
4ryy	8b-X'L 8dd 8ff 8bb-X	.	8d'L	.	8ddd'L	.
.	(8.b- 8.dd 8.ff 8.bb-	.	(8.d	.	(8.ddd	.
4ryy	.	.	.	.	.	.
.	16bnJk 16ee 16ff#X 16bbn	.	16eJk)	.	16eeeJk)	.
.	8.ccL 8.dd 8.gg 8.ccc	.	(8.dL	.	(8.dddL	.
4ryy	.	.	.	.	.	.
.	16bJk 16ee 16ff# 16bb	.	16eJk)	.	16eeeJk)	.
.	8fn' 8a 8cc 8ffn)	.	(8A'	.	(8aa'	.
8ryy	4f#X~ 4b 4dd 4ff#X	.	4B~)	.	4bb~)	.
8ryy	.	.	.	.	.	.
=8	=8	=8	=8	=8	=8	=8
4ryy	8b-X'L 8dd 8ffn 8bb-X	.	8d'L	.	8ddd'L	.
.	(>8.b- 8.dd 8.ff 8.bb-	.	(8.d	.	(8.ddd	.
4ryy	.	.	.	.	.	.
.	16bnJk 16ee 16ff#X 16bbn	.	16eJk)	.	16eeeJk)	.
.	8.gL 8.cc 8.ee 8.gg	.	(8.cL	.	(8.cccL	.
4ryy	.	.	.	.	.	.
.	16f#XJk 16b 16dd 16ff#	.	16BJk)	.	16bbJk)	.
.	8d' 8g 8b 8dd)	.	(8G'	.	(8gg'	.
8ryy	4c#X~ 4e 4a 4cc#X	.	4E~)	.	4ee~)	.
8ryy	.	.	.	.	.	.
=	=	=	=	=	=	=
*-	*-	*-	*-	*-	*-	*-
!!!system-decoration: s1,s2[({(s3,s4)})]
!!!RDF**kern: > = above
!!!RDF**kern: < = below
!!!EED: Daniel Wright
!!!EEV: 2021/07/09
!!!EED2: Gabriella Vici
!!!EEV2: 2022/02/08
